X: 39040
T: Swans At Claddagh, The
R: reel
M: 4/4
K: Gmajor
|:EGcd e2eg|f2 fd Adfd|1 EGcd e2dc|AGGG AGFD:|2 EFGA Bded|cAFA G3z||
|:bgeG Bebg|f2eg fd d2|1 (3Bcd ed cA BG|EFGA Bdga:|2 EFGA Bded|cAFA G2z2||

